assets/bgscroll.svg

<?xml version="1.0" encoding="utf-8"?>
<svg viewBox="446 252 446 252" width="446" height="252" xmlns="http://www.w3.org/2000/svg">
  <rect x="446" y="252" width="446" height="252" style="fill: rgb(255, 255, 255);"/>
  <path d="M 586.163 269.826 C 586.163 264.576 585.203 263.486 580.533 263.486 L 558.833 263.486 C 554.293 263.486 553.013 264.706 553.013 268.926 L 553.013 300.476 C 553.013 304.836 554.223 306.176 558.323 306.176 L 579.823 306.176 C 585.073 306.176 586.163 305.276 586.163 300.546 L 586.163 269.826 Z M 580.663 273.986 L 580.663 291.006 C 580.663 295.486 580.083 296.066 575.663 296.066 L 571.823 296.066 L 570.353 296.066 C 567.733 296.066 567.093 296.446 566.453 298.236 C 565.743 300.286 565.103 300.676 562.543 300.676 C 559.023 300.676 558.383 299.776 558.383 294.846 L 558.383 274.626 C 558.383 269.376 558.833 268.866 563.633 268.866 L 576.183 268.866 C 580.023 268.866 580.663 269.566 580.663 273.986 ZM 610.227 306.176 C 614.447 306.176 615.157 305.476 615.157 301.246 L 615.157 279.806 C 615.157 276.796 614.647 275.906 612.847 275.906 C 611.057 275.906 610.487 276.866 610.487 279.806 L 610.487 298.116 C 610.487 301.056 610.037 301.506 607.087 301.506 L 604.017 301.506 C 600.887 301.506 600.567 301.186 600.567 298.116 L 600.567 290.946 C 600.567 288.386 600.247 287.876 598.447 287.356 C 596.597 286.916 596.337 286.466 596.337 284.416 L 596.337 279.806 C 596.337 276.796 595.827 275.906 594.037 275.906 C 592.247 275.906 591.667 276.866 591.667 279.806 L 591.667 301.246 C 591.667 305.476 592.367 306.176 596.597 306.176 L 610.227 306.176 ZM 629.235 267.396 C 629.235 267.326 629.235 267.266 629.235 267.266 C 629.235 264.316 628.215 263.426 624.885 263.426 C 621.425 263.426 620.275 264.446 620.275 267.516 C 620.275 270.396 621.295 271.236 624.755 271.236 C 628.145 271.236 629.235 270.336 629.235 267.396 Z M 629.175 290.946 C 629.175 288.386 628.855 287.876 627.055 287.356 C 625.265 286.916 625.015 286.466 625.015 284.416 L 625.015 279.806 C 625.015 276.796 624.435 275.906 622.645 275.906 C 620.915 275.906 620.335 276.866 620.335 279.806 L 620.335 300.736 C 620.335 305.476 620.915 306.176 624.945 306.176 C 628.465 306.176 629.175 305.216 629.175 300.736 L 629.175 290.946 ZM 633.523 301.116 C 633.523 305.536 634.163 306.176 638.453 306.176 L 649.393 306.176 C 651.763 306.176 652.343 306.756 652.343 309.056 L 652.343 313.536 C 652.343 316.546 652.913 317.436 654.703 317.436 C 656.503 317.436 657.013 316.476 657.013 313.476 L 657.013 280.956 C 657.013 276.926 656.113 276.036 652.213 276.036 L 638.453 276.036 C 634.223 276.036 633.523 276.736 633.523 280.956 L 633.523 301.116 Z M 652.403 284.036 L 652.403 298.116 C 652.403 301.056 651.893 301.506 648.943 301.506 L 645.873 301.506 C 642.743 301.506 642.423 301.186 642.423 298.116 L 642.423 292.356 C 642.423 289.796 642.103 289.276 640.303 288.766 C 638.513 288.316 638.193 287.876 638.193 285.826 L 638.193 284.036 C 638.193 281.156 638.703 280.636 641.583 280.636 L 649.013 280.636 C 651.953 280.636 652.403 281.086 652.403 284.036 ZM 680.499 306.176 C 684.719 306.176 685.429 305.476 685.429 301.246 L 685.429 279.806 C 685.429 276.796 684.919 275.906 683.119 275.906 C 681.329 275.906 680.759 276.866 680.759 279.806 L 680.759 298.116 C 680.759 301.056 680.309 301.506 677.359 301.506 L 674.289 301.506 C 671.159 301.506 670.839 301.186 670.839 298.116 L 670.839 290.946 C 670.839 288.386 670.519 287.876 668.719 287.356 C 666.869 286.916 666.609 286.466 666.609 284.416 L 666.609 279.806 C 666.609 276.796 666.099 275.906 664.309 275.906 C 662.519 275.906 661.939 276.866 661.939 279.806 L 661.939 301.246 C 661.939 305.476 662.639 306.176 666.869 306.176 L 680.499 306.176 ZM 714.037 281.086 C 714.037 276.676 713.457 276.036 709.107 276.036 L 695.477 276.036 C 691.187 276.036 690.547 276.676 690.547 281.086 L 690.547 301.246 C 690.547 305.476 691.247 306.176 695.477 306.176 L 709.107 306.176 C 713.327 306.176 714.037 305.476 714.037 301.246 L 714.037 299.456 C 714.037 297.156 713.327 296.126 711.667 296.126 C 710.327 296.126 709.557 296.896 709.427 298.306 L 709.297 299.396 C 709.167 300.926 708.527 301.436 706.607 301.436 L 702.837 301.436 C 699.767 301.436 699.377 301.116 699.377 298.046 L 699.377 295.996 C 699.377 293.116 699.887 292.606 702.767 292.606 L 709.107 292.606 C 713.327 292.606 714.037 291.836 714.037 287.676 L 714.037 281.086 Z M 705.967 287.936 L 698.607 287.936 C 695.537 287.936 695.217 287.616 695.217 284.476 L 695.217 284.036 C 695.217 280.956 695.537 280.636 698.607 280.636 L 705.967 280.636 C 708.917 280.636 709.367 281.086 709.367 284.036 L 709.367 284.476 C 709.367 287.486 708.917 287.936 705.967 287.936 ZM 729.271 302.396 C 729.271 299.136 728.311 298.366 724.211 298.366 C 720.181 298.366 719.221 299.076 719.221 302.146 C 719.221 305.536 720.051 306.176 724.471 306.176 C 728.181 306.176 729.271 305.276 729.271 302.396 ZM 758.325 281.086 C 758.325 276.676 757.745 276.036 753.395 276.036 L 739.765 276.036 C 735.475 276.036 734.835 276.676 734.835 281.086 L 734.835 301.246 C 734.835 305.476 735.535 306.176 739.765 306.176 L 750.325 306.176 C 753.265 306.176 753.715 306.626 753.715 309.566 C 753.715 312.066 753.075 312.576 750.255 312.576 L 738.865 312.576 C 735.855 312.576 734.895 313.156 734.895 314.946 C 734.895 316.736 735.855 317.246 738.805 317.246 L 753.265 317.246 C 757.555 317.246 758.325 316.476 758.325 312.386 L 758.325 281.086 Z M 753.715 284.036 L 753.715 298.116 C 753.715 301.056 753.205 301.506 750.255 301.506 L 747.185 301.506 C 744.055 301.506 743.735 301.186 743.735 298.116 L 743.735 292.356 C 743.735 289.796 743.415 289.276 741.615 288.766 C 739.825 288.316 739.505 287.876 739.505 285.826 L 739.505 284.036 C 739.505 281.156 740.015 280.636 742.895 280.636 L 750.325 280.636 C 753.265 280.636 753.715 281.086 753.715 284.036 ZM 763.251 301.116 C 763.251 305.536 763.891 306.176 768.181 306.176 L 779.121 306.176 C 781.491 306.176 782.071 306.756 782.071 309.056 L 782.071 313.536 C 782.071 316.546 782.641 317.436 784.431 317.436 C 786.231 317.436 786.741 316.476 786.741 313.476 L 786.741 280.956 C 786.741 276.926 785.841 276.036 781.941 276.036 L 768.181 276.036 C 763.951 276.036 763.251 276.736 763.251 280.956 L 763.251 301.116 Z M 782.131 284.036 L 782.131 298.116 C 782.131 301.056 781.621 301.506 778.671 301.506 L 775.601 301.506 C 772.471 301.506 772.151 301.186 772.151 298.116 L 772.151 292.356 C 772.151 289.796 771.831 289.276 770.031 288.766 C 768.241 288.316 767.921 287.876 767.921 285.826 L 767.921 284.036 C 767.921 281.156 768.431 280.636 771.311 280.636 L 778.741 280.636 C 781.681 280.636 782.131 281.086 782.131 284.036 Z" style="white-space: pre; fill: rgb(248, 248, 248);"/>
  <path d="M 807.161 395.876 C 807.161 390.626 806.201 389.536 801.531 389.536 L 779.831 389.536 C 775.291 389.536 774.011 390.756 774.011 394.976 L 774.011 426.526 C 774.011 430.886 775.221 432.226 779.321 432.226 L 800.821 432.226 C 806.071 432.226 807.161 431.326 807.161 426.596 L 807.161 395.876 Z M 801.661 400.036 L 801.661 417.056 C 801.661 421.536 801.081 422.116 796.661 422.116 L 792.821 422.116 L 791.351 422.116 C 788.731 422.116 788.091 422.496 787.451 424.286 C 786.741 426.336 786.101 426.726 783.541 426.726 C 780.021 426.726 779.381 425.826 779.381 420.896 L 779.381 400.676 C 779.381 395.426 779.831 394.916 784.631 394.916 L 797.181 394.916 C 801.021 394.916 801.661 395.616 801.661 400.036 ZM 831.225 432.226 C 835.445 432.226 836.155 431.526 836.155 427.296 L 836.155 405.856 C 836.155 402.846 835.645 401.956 833.845 401.956 C 832.055 401.956 831.485 402.916 831.485 405.856 L 831.485 424.166 C 831.485 427.106 831.035 427.556 828.085 427.556 L 825.015 427.556 C 821.885 427.556 821.565 427.236 821.565 424.166 L 821.565 416.996 C 821.565 414.436 821.245 413.926 819.445 413.406 C 817.595 412.966 817.335 412.516 817.335 410.466 L 817.335 405.856 C 817.335 402.846 816.825 401.956 815.035 401.956 C 813.245 401.956 812.665 402.916 812.665 405.856 L 812.665 427.296 C 812.665 431.526 813.365 432.226 817.595 432.226 L 831.225 432.226 ZM 850.233 393.446 C 850.233 393.376 850.233 393.316 850.233 393.316 C 850.233 390.366 849.213 389.476 845.883 389.476 C 842.423 389.476 841.273 390.496 841.273 393.566 C 841.273 396.446 842.293 397.286 845.753 397.286 C 849.143 397.286 850.233 396.386 850.233 393.446 Z M 850.173 416.996 C 850.173 414.436 849.853 413.926 848.053 413.406 C 846.263 412.966 846.013 412.516 846.013 410.466 L 846.013 405.856 C 846.013 402.846 845.433 401.956 843.643 401.956 C 841.913 401.956 841.333 402.916 841.333 405.856 L 841.333 426.786 C 841.333 431.526 841.913 432.226 845.943 432.226 C 849.463 432.226 850.173 431.266 850.173 426.786 L 850.173 416.996 ZM 854.521 427.166 C 854.521 431.586 855.161 432.226 859.451 432.226 L 870.391 432.226 C 872.761 432.226 873.341 432.806 873.341 435.106 L 873.341 439.586 C 873.341 442.596 873.911 443.486 875.701 443.486 C 877.501 443.486 878.011 442.526 878.011 439.526 L 878.011 407.006 C 878.011 402.976 877.111 402.086 873.211 402.086 L 859.451 402.086 C 855.221 402.086 854.521 402.786 854.521 407.006 L 854.521 427.166 Z M 873.401 410.086 L 873.401 424.166 C 873.401 427.106 872.891 427.556 869.941 427.556 L 866.871 427.556 C 863.741 427.556 863.421 427.236 863.421 424.166 L 863.421 418.406 C 863.421 415.846 863.101 415.326 861.301 414.816 C 859.511 414.366 859.191 413.926 859.191 411.876 L 859.191 410.086 C 859.191 407.206 859.701 406.686 862.581 406.686 L 870.011 406.686 C 872.951 406.686 873.401 407.136 873.401 410.086 ZM 901.497 432.226 C 905.717 432.226 906.427 431.526 906.427 427.296 L 906.427 405.856 C 906.427 402.846 905.917 401.956 904.117 401.956 C 902.327 401.956 901.757 402.916 901.757 405.856 L 901.757 424.166 C 901.757 427.106 901.307 427.556 898.357 427.556 L 895.287 427.556 C 892.157 427.556 891.837 427.236 891.837 424.166 L 891.837 416.996 C 891.837 414.436 891.517 413.926 889.717 413.406 C 887.867 412.966 887.607 412.516 887.607 410.466 L 887.607 405.856 C 887.607 402.846 887.097 401.956 885.307 401.956 C 883.517 401.956 882.937 402.916 882.937 405.856 L 882.937 427.296 C 882.937 431.526 883.637 432.226 887.867 432.226 L 901.497 432.226 ZM 935.035 407.136 C 935.035 402.726 934.455 402.086 930.105 402.086 L 916.475 402.086 C 912.185 402.086 911.545 402.726 911.545 407.136 L 911.545 427.296 C 911.545 431.526 912.245 432.226 916.475 432.226 L 930.105 432.226 C 934.325 432.226 935.035 431.526 935.035 427.296 L 935.035 425.506 C 935.035 423.206 934.325 422.176 932.665 422.176 C 931.325 422.176 930.555 422.946 930.425 424.356 L 930.295 425.446 C 930.165 426.976 929.525 427.486 927.605 427.486 L 923.835 427.486 C 920.765 427.486 920.375 427.166 920.375 424.096 L 920.375 422.046 C 920.375 419.166 920.885 418.656 923.765 418.656 L 930.105 418.656 C 934.325 418.656 935.035 417.886 935.035 413.726 L 935.035 407.136 Z M 926.965 413.986 L 919.605 413.986 C 916.535 413.986 916.215 413.666 916.215 410.526 L 916.215 410.086 C 916.215 407.006 916.535 406.686 919.605 406.686 L 926.965 406.686 C 929.915 406.686 930.365 407.136 930.365 410.086 L 930.365 410.526 C 930.365 413.536 929.915 413.986 926.965 413.986 ZM 950.269 428.446 C 950.269 425.186 949.309 424.416 945.209 424.416 C 941.179 424.416 940.219 425.126 940.219 428.196 C 940.219 431.586 941.049 432.226 945.469 432.226 C 949.179 432.226 950.269 431.326 950.269 428.446 ZM 979.323 407.136 C 979.323 402.726 978.743 402.086 974.393 402.086 L 960.763 402.086 C 956.473 402.086 955.833 402.726 955.833 407.136 L 955.833 427.296 C 955.833 431.526 956.533 432.226 960.763 432.226 L 971.323 432.226 C 974.263 432.226 974.713 432.676 974.713 435.616 C 974.713 438.116 974.073 438.626 971.253 438.626 L 959.863 438.626 C 956.853 438.626 955.893 439.206 955.893 440.996 C 955.893 442.786 956.853 443.296 959.803 443.296 L 974.263 443.296 C 978.553 443.296 979.323 442.526 979.323 438.436 L 979.323 407.136 Z M 974.713 410.086 L 974.713 424.166 C 974.713 427.106 974.203 427.556 971.253 427.556 L 968.183 427.556 C 965.053 427.556 964.733 427.236 964.733 424.166 L 964.733 418.406 C 964.733 415.846 964.413 415.326 962.613 414.816 C 960.823 414.366 960.503 413.926 960.503 411.876 L 960.503 410.086 C 960.503 407.206 961.013 406.686 963.893 406.686 L 971.323 406.686 C 974.263 406.686 974.713 407.136 974.713 410.086 ZM 984.249 427.166 C 984.249 431.586 984.889 432.226 989.179 432.226 L 1000.119 432.226 C 1002.489 432.226 1003.069 432.806 1003.069 435.106 L 1003.069 439.586 C 1003.069 442.596 1003.639 443.486 1005.429 443.486 C 1007.229 443.486 1007.739 442.526 1007.739 439.526 L 1007.739 407.006 C 1007.739 402.976 1006.839 402.086 1002.939 402.086 L 989.179 402.086 C 984.949 402.086 984.249 402.786 984.249 407.006 L 984.249 427.166 Z M 1003.129 410.086 L 1003.129 424.166 C 1003.129 427.106 1002.619 427.556 999.669 427.556 L 996.599 427.556 C 993.469 427.556 993.149 427.236 993.149 424.166 L 993.149 418.406 C 993.149 415.846 992.829 415.326 991.029 414.816 C 989.239 414.366 988.919 413.926 988.919 411.876 L 988.919 410.086 C 988.919 407.206 989.429 406.686 992.309 406.686 L 999.739 406.686 C 1002.679 406.686 1003.129 407.136 1003.129 410.086 Z" style="white-space: pre; fill: rgb(248, 248, 248);"/>
  <path d="M 362.169 395.879 C 362.169 390.629 361.209 389.539 356.539 389.539 L 334.839 389.539 C 330.299 389.539 329.019 390.759 329.019 394.979 L 329.019 426.529 C 329.019 430.889 330.229 432.229 334.329 432.229 L 355.829 432.229 C 361.079 432.229 362.169 431.329 362.169 426.599 L 362.169 395.879 Z M 356.669 400.039 L 356.669 417.059 C 356.669 421.539 356.089 422.119 351.669 422.119 L 347.829 422.119 L 346.359 422.119 C 343.739 422.119 343.099 422.499 342.459 424.289 C 341.749 426.339 341.109 426.729 338.549 426.729 C 335.029 426.729 334.389 425.829 334.389 420.899 L 334.389 400.679 C 334.389 395.429 334.839 394.919 339.639 394.919 L 352.189 394.919 C 356.029 394.919 356.669 395.619 356.669 400.039 ZM 386.233 432.229 C 390.453 432.229 391.163 431.529 391.163 427.299 L 391.163 405.859 C 391.163 402.849 390.653 401.959 388.853 401.959 C 387.063 401.959 386.493 402.919 386.493 405.859 L 386.493 424.169 C 386.493 427.109 386.043 427.559 383.093 427.559 L 380.023 427.559 C 376.893 427.559 376.573 427.239 376.573 424.169 L 376.573 416.999 C 376.573 414.439 376.253 413.929 374.453 413.409 C 372.603 412.969 372.343 412.519 372.343 410.469 L 372.343 405.859 C 372.343 402.849 371.833 401.959 370.043 401.959 C 368.253 401.959 367.673 402.919 367.673 405.859 L 367.673 427.299 C 367.673 431.529 368.373 432.229 372.603 432.229 L 386.233 432.229 ZM 405.241 393.449 C 405.241 393.379 405.241 393.319 405.241 393.319 C 405.241 390.369 404.221 389.479 400.891 389.479 C 397.431 389.479 396.281 390.499 396.281 393.569 C 396.281 396.449 397.301 397.289 400.761 397.289 C 404.151 397.289 405.241 396.389 405.241 393.449 Z M 405.181 416.999 C 405.181 414.439 404.861 413.929 403.061 413.409 C 401.271 412.969 401.021 412.519 401.021 410.469 L 401.021 405.859 C 401.021 402.849 400.441 401.959 398.651 401.959 C 396.921 401.959 396.341 402.919 396.341 405.859 L 396.341 426.789 C 396.341 431.529 396.921 432.229 400.951 432.229 C 404.471 432.229 405.181 431.269 405.181 426.789 L 405.181 416.999 ZM 409.529 427.169 C 409.529 431.589 410.169 432.229 414.459 432.229 L 425.399 432.229 C 427.769 432.229 428.349 432.809 428.349 435.109 L 428.349 439.589 C 428.349 442.599 428.919 443.489 430.709 443.489 C 432.509 443.489 433.019 442.529 433.019 439.529 L 433.019 407.009 C 433.019 402.979 432.119 402.089 428.219 402.089 L 414.459 402.089 C 410.229 402.089 409.529 402.789 409.529 407.009 L 409.529 427.169 Z M 428.409 410.089 L 428.409 424.169 C 428.409 427.109 427.899 427.559 424.949 427.559 L 421.879 427.559 C 418.749 427.559 418.429 427.239 418.429 424.169 L 418.429 418.409 C 418.429 415.849 418.109 415.329 416.309 414.819 C 414.519 414.369 414.199 413.929 414.199 411.879 L 414.199 410.089 C 414.199 407.209 414.709 406.689 417.589 406.689 L 425.019 406.689 C 427.959 406.689 428.409 407.139 428.409 410.089 ZM 456.505 432.229 C 460.725 432.229 461.435 431.529 461.435 427.299 L 461.435 405.859 C 461.435 402.849 460.925 401.959 459.125 401.959 C 457.335 401.959 456.765 402.919 456.765 405.859 L 456.765 424.169 C 456.765 427.109 456.315 427.559 453.365 427.559 L 450.295 427.559 C 447.165 427.559 446.845 427.239 446.845 424.169 L 446.845 416.999 C 446.845 414.439 446.525 413.929 444.725 413.409 C 442.875 412.969 442.615 412.519 442.615 410.469 L 442.615 405.859 C 442.615 402.849 442.105 401.959 440.315 401.959 C 438.525 401.959 437.945 402.919 437.945 405.859 L 437.945 427.299 C 437.945 431.529 438.645 432.229 442.875 432.229 L 456.505 432.229 ZM 490.043 407.139 C 490.043 402.729 489.463 402.089 485.113 402.089 L 471.483 402.089 C 467.193 402.089 466.553 402.729 466.553 407.139 L 466.553 427.299 C 466.553 431.529 467.253 432.229 471.483 432.229 L 485.113 432.229 C 489.333 432.229 490.043 431.529 490.043 427.299 L 490.043 425.509 C 490.043 423.209 489.333 422.179 487.673 422.179 C 486.333 422.179 485.563 422.949 485.433 424.359 L 485.303 425.449 C 485.173 426.979 484.533 427.489 482.613 427.489 L 478.843 427.489 C 475.773 427.489 475.383 427.169 475.383 424.099 L 475.383 422.049 C 475.383 419.169 475.893 418.659 478.773 418.659 L 485.113 418.659 C 489.333 418.659 490.043 417.889 490.043 413.729 L 490.043 407.139 Z M 481.973 413.989 L 474.613 413.989 C 471.543 413.989 471.223 413.669 471.223 410.529 L 471.223 410.089 C 471.223 407.009 471.543 406.689 474.613 406.689 L 481.973 406.689 C 484.923 406.689 485.373 407.139 485.373 410.089 L 485.373 410.529 C 485.373 413.539 484.923 413.989 481.973 413.989 ZM 505.277 428.449 C 505.277 425.189 504.317 424.419 500.217 424.419 C 496.187 424.419 495.227 425.129 495.227 428.199 C 495.227 431.589 496.057 432.229 500.477 432.229 C 504.187 432.229 505.277 431.329 505.277 428.449 ZM 534.331 407.139 C 534.331 402.729 533.751 402.089 529.401 402.089 L 515.771 402.089 C 511.481 402.089 510.841 402.729 510.841 407.139 L 510.841 427.299 C 510.841 431.529 511.541 432.229 515.771 432.229 L 526.331 432.229 C 529.271 432.229 529.721 432.679 529.721 435.619 C 529.721 438.119 529.081 438.629 526.261 438.629 L 514.871 438.629 C 511.861 438.629 510.901 439.209 510.901 440.999 C 510.901 442.789 511.861 443.299 514.811 443.299 L 529.271 443.299 C 533.561 443.299 534.331 442.529 534.331 438.439 L 534.331 407.139 Z M 529.721 410.089 L 529.721 424.169 C 529.721 427.109 529.211 427.559 526.261 427.559 L 523.191 427.559 C 520.061 427.559 519.741 427.239 519.741 424.169 L 519.741 418.409 C 519.741 415.849 519.421 415.329 517.621 414.819 C 515.831 414.369 515.511 413.929 515.511 411.879 L 515.511 410.089 C 515.511 407.209 516.021 406.689 518.901 406.689 L 526.331 406.689 C 529.271 406.689 529.721 407.139 529.721 410.089 ZM 539.257 427.169 C 539.257 431.589 539.897 432.229 544.187 432.229 L 555.127 432.229 C 557.497 432.229 558.077 432.809 558.077 435.109 L 558.077 439.589 C 558.077 442.599 558.647 443.489 560.437 443.489 C 562.237 443.489 562.747 442.529 562.747 439.529 L 562.747 407.009 C 562.747 402.979 561.847 402.089 557.947 402.089 L 544.187 402.089 C 539.957 402.089 539.257 402.789 539.257 407.009 L 539.257 427.169 Z M 558.137 410.089 L 558.137 424.169 C 558.137 427.109 557.627 427.559 554.677 427.559 L 551.607 427.559 C 548.477 427.559 548.157 427.239 548.157 424.169 L 548.157 418.409 C 548.157 415.849 547.837 415.329 546.037 414.819 C 544.247 414.369 543.927 413.929 543.927 411.879 L 543.927 410.089 C 543.927 407.209 544.437 406.689 547.317 406.689 L 554.747 406.689 C 557.687 406.689 558.137 407.139 558.137 410.089 Z" style="white-space: pre; fill: rgb(248, 248, 248);"/>
</svg>

<svg xmlns="http://www.w3.org/2000/svg" xmlns:xlink="http://www.w3.org/1999/xlink" viewBox="446 252 446 252" width="446" height="252" xmlns:v="https://vecta.io/nano"><path d="M446 252h446v252H446z" fill="#fff"/><g fill="#f8f8f8"><use xlink:href="#B"/><use xlink:href="#B" x="220.998" y="126.05"/><use xlink:href="#B" x="-223.994" y="126.053"/></g><defs ><path id="B" d="M586.163 269.826c0-5.25-.96-6.34-5.63-6.34h-21.7c-4.54 0-5.82 1.22-5.82 5.44v31.55c0 4.36 1.21 5.7 5.31 5.7h21.5c5.25 0 6.34-.9 6.34-5.63v-30.72zm-5.5 4.16v17.02c0 4.48-.58 5.06-5 5.06h-5.31c-2.62 0-3.26.38-3.9 2.17-.71 2.05-1.35 2.44-3.91 2.44-3.52 0-4.16-.9-4.16-5.83v-20.22c0-5.25.45-5.76 5.25-5.76h12.55c3.84 0 4.48.7 4.48 5.12zm29.564 32.19c4.22 0 4.93-.7 4.93-4.93v-21.44c0-3.01-.51-3.9-2.31-3.9-1.79 0-2.36.96-2.36 3.9v18.31c0 2.94-.45 3.39-3.4 3.39h-3.07c-3.13 0-3.45-.32-3.45-3.39v-7.17c0-2.56-.32-3.07-2.12-3.59-1.85-.44-2.11-.89-2.11-2.94v-4.61c0-3.01-.51-3.9-2.3-3.9s-2.37.96-2.37 3.9v21.44c0 4.23.7 4.93 4.93 4.93h13.63zm19.008-38.78v-.13c0-2.95-1.02-3.84-4.35-3.84-3.46 0-4.61 1.02-4.61 4.09 0 2.88 1.02 3.72 4.48 3.72 3.39 0 4.48-.9 4.48-3.84zm-.06 23.55c0-2.56-.32-3.07-2.12-3.59-1.79-.44-2.04-.89-2.04-2.94v-4.61c0-3.01-.58-3.9-2.37-3.9-1.73 0-2.31.96-2.31 3.9v20.93c0 4.74.58 5.44 4.61 5.44 3.52 0 4.23-.96 4.23-5.44v-9.79zm4.348 10.17c0 4.42.64 5.06 4.93 5.06h10.94c2.37 0 2.95.58 2.95 2.88v4.48c0 3.01.57 3.9 2.36 3.9 1.8 0 2.31-.96 2.31-3.96v-32.52c0-4.03-.9-4.92-4.8-4.92h-13.76c-4.23 0-4.93.7-4.93 4.92v20.16zm18.88-17.08v14.08c0 2.94-.51 3.39-3.46 3.39h-3.07c-3.13 0-3.45-.32-3.45-3.39v-5.76c0-2.56-.32-3.08-2.12-3.59-1.79-.45-2.11-.89-2.11-2.94v-1.79c0-2.88.51-3.4 3.39-3.4h7.43c2.94 0 3.39.45 3.39 3.4zm28.096 22.14c4.22 0 4.93-.7 4.93-4.93v-21.44c0-3.01-.51-3.9-2.31-3.9-1.79 0-2.36.96-2.36 3.9v18.31c0 2.94-.45 3.39-3.4 3.39h-3.07c-3.13 0-3.45-.32-3.45-3.39v-7.17c0-2.56-.32-3.07-2.12-3.59-1.85-.44-2.11-.89-2.11-2.94v-4.61c0-3.01-.51-3.9-2.3-3.9s-2.37.96-2.37 3.9v21.44c0 4.23.7 4.93 4.93 4.93h13.63zm33.538-25.09c0-4.41-.58-5.05-4.93-5.05h-13.63c-4.29 0-4.93.64-4.93 5.05v20.16c0 4.23.7 4.93 4.93 4.93h13.63c4.22 0 4.93-.7 4.93-4.93v-1.79c0-2.3-.71-3.33-2.37-3.33-1.34 0-2.11.77-2.24 2.18l-.13 1.09c-.13 1.53-.77 2.04-2.69 2.04h-3.77c-3.07 0-3.46-.32-3.46-3.39v-2.05c0-2.88.51-3.39 3.39-3.39h6.34c4.22 0 4.93-.77 4.93-4.93v-6.59zm-8.07 6.85h-7.36c-3.07 0-3.39-.32-3.39-3.46v-.44c0-3.08.32-3.4 3.39-3.4h7.36c2.95 0 3.4.45 3.4 3.4v.44c0 3.01-.45 3.46-3.4 3.46zm23.304 14.46c0-3.26-.96-4.03-5.06-4.03-4.03 0-4.99.71-4.99 3.78 0 3.39.83 4.03 5.25 4.03 3.71 0 4.8-.9 4.8-3.78zm29.054-21.31c0-4.41-.58-5.05-4.93-5.05h-13.63c-4.29 0-4.93.64-4.93 5.05v20.16c0 4.23.7 4.93 4.93 4.93h10.56c2.94 0 3.39.45 3.39 3.39 0 2.5-.64 3.01-3.46 3.01h-11.39c-3.01 0-3.97.58-3.97 2.37s.96 2.3 3.91 2.3h14.46c4.29 0 5.06-.77 5.06-4.86v-31.3zm-4.61 2.95v14.08c0 2.94-.51 3.39-3.46 3.39h-3.07c-3.13 0-3.45-.32-3.45-3.39v-5.76c0-2.56-.32-3.08-2.12-3.59-1.79-.45-2.11-.89-2.11-2.94v-1.79c0-2.88.51-3.4 3.39-3.4h7.43c2.94 0 3.39.45 3.39 3.4zm9.536 17.08c0 4.42.64 5.06 4.93 5.06h10.94c2.37 0 2.95.58 2.95 2.88v4.48c0 3.01.57 3.9 2.36 3.9 1.8 0 2.31-.96 2.31-3.96v-32.52c0-4.03-.9-4.92-4.8-4.92h-13.76c-4.23 0-4.93.7-4.93 4.92v20.16zm18.88-17.08v14.08c0 2.94-.51 3.39-3.46 3.39h-3.07c-3.13 0-3.45-.32-3.45-3.39v-5.76c0-2.56-.32-3.08-2.12-3.59-1.79-.45-2.11-.89-2.11-2.94v-1.79c0-2.88.51-3.4 3.39-3.4h7.43c2.94 0 3.39.45 3.39 3.4z"/></defs></svg>
